images/chicagoland.svg

<svg height="90" viewBox="0 0 150 90" width="150" xmlns="http://www.w3.org/2000/svg"><path d="m75.6844828 14c-8.1666508 0-15.1323159 2.258931-26.4522017 7.5832815-17.1939983 8.0872612-25.2322811 16.3113394-25.2322811 28.3587075 0 7.9081854 2.6414443 13.8803431 9.0679305 18.3710701 8.0540375 5.628034 21.8731191 8.6869409 42.6165523 8.6869409 20.7333998 0 34.4678772-3.054963 42.4228892-8.6804878 6.326062-4.4735834 8.892628-10.4126829 8.892628-18.3775232 0-12.1027707-6.864635-19.6339055-22.491024-27.2606613-14.5239335-7.0886819-19.6224409-8.6813277-28.8244932-8.6813277z" fill="none" stroke="#000" stroke-width="4"/></svg>

<?xml version="1.0" encoding="UTF-8"?>
<svg width="150px" height="90px" viewBox="0 0 150 90" version="1.1" xmlns="http://www.w3.org/2000/svg" xmlns:xlink="http://www.w3.org/1999/xlink">
    <!-- Generator: Sketch 51.3 (57544) - http://www.bohemiancoding.com/sketch -->
    <title>Artboard</title>
    <desc>Created with Sketch.</desc>
    <defs></defs>
    <g id="Artboard" stroke="none" stroke-width="1" fill="none" fill-rule="evenodd">
        <path d="M75.6844828,14 C67.517832,14 60.5521669,16.258931 49.2322811,21.5832815 C32.0382828,29.6705427 24,37.8946209 24,49.941989 C24,57.8501744 26.6414443,63.8223321 33.0679305,68.3130591 C41.121968,73.9410931 54.9410496,77 75.6844828,77 C96.4178826,77 110.15236,73.945037 118.107372,68.3195122 C124.433434,63.8459288 127,57.9068293 127,49.941989 C127,37.8392183 120.135365,30.3080835 104.508976,22.6813277 C89.9850425,15.5926458 84.8865351,14 75.6844828,14 Z" id="Combined-Shape" stroke="#000000" stroke-width="4"></path>
    </g>
</svg>
